X:5033
T:Head of the Plain
M:6/8
L:1/8
Q:180
C:Aidan Crossey
R:Jig
K:Am
|:AcA Ac^c|d^cd d=cA|AcA Ac^c|def gfe|
AcA Ac^c|d^cd d=cA|AcA GEA|D3 z3:||
|:d^cd d=cA|d^cd d=cA|cBc cAG|G3 ^G3|
d^cd d=cA|d^cd d=cA|AcA GEA|D3 z3:|
